X: 6324
T: Carron Streams
R: jig
M: 6/8
K: Edorian
M:4/4
{a}fJg3-g4-|g=fed{e}d4-|d6z2|z2e=fJg4-|g4{a}g2d2-|d4{e}d4-|
d2z2BcB{c}B-|B3-B2-AG2-|G3-G2JAJ^A2|A=F4-=F3-|=FE4-E3-|E2=FGJA4-|A8-|
AzEJA3JA2-|A4GE3-|E8-|E3z3D2|AJB2{c}BABc2|BAB2DE=Fd-|d8|
e2{f}e{f}ed2{e}d{e}d|cBJA6-|A3z3Bc|{e}dGJA6-|A8-|A3B3.cA/B/|A8|
z4EJ=F2G-|G6{A}GE|=FJG4-G3|G2z3ED2-|D8-|D8-|!>!D6z2|

